icons/sword-line.svg

<svg xmlns="http://www.w3.org/2000/svg" width="24" height="24" fill="none"><g clip-path="url(#a)"><g><path fill="#121212" d="M17.457 3L21 3.003L21.002 6.526L15.535 11.992L18.363 14.821L19.778 13.407L21.192 14.821L18.718 17.296L21.546 20.125L20.132 21.539L17.303 18.71L14.828 21.185L13.414 19.771L14.828 18.356L11.999 15.528L9.17098 18.356L10.586 19.771L9.17198 21.185L6.69698 18.71L3.86798 21.539L2.45398 20.125L5.28298 17.295L2.80798 14.821L4.22198 13.407L5.63598 14.82L8.46298 11.992L3.00298 6.532L2.99998 3L6.54598 3.003L11.999 8.457L17.457 3ZM9.87698 13.406L7.04998 16.234L7.75798 16.941L10.585 14.113L9.87798 13.406H9.87698ZM19.001 5.001H18.284L13.414 9.87L14.12 10.577L19.001 5.698V5.001ZM5.00098 5.001V5.701L16.242 16.942L16.949 16.235L5.71598 5.002L5.00098 5.001Z"/></g></g><defs><clipPath id="a"><rect width="24" height="24" fill="white"/></clipPath></defs></svg>

<svg width="24" height="24" fill="none" xmlns="http://www.w3.org/2000/svg"><g clip-path="url(#a)"><path d="M17.457 3 21 3.003l.002 3.523-5.467 5.466 2.828 2.829 1.415-1.414 1.414 1.414-2.474 2.475 2.828 2.829-1.414 1.414-2.829-2.829-2.475 2.475-1.414-1.414 1.414-1.415-2.829-2.828-2.828 2.828 1.415 1.415-1.414 1.414-2.475-2.475-2.829 2.829-1.414-1.414 2.829-2.83-2.475-2.474 1.414-1.414 1.414 1.413 2.827-2.828-5.46-5.46L3 3l3.546.003 5.453 5.454L17.457 3Zm-7.58 10.406L7.05 16.234l.708.707 2.827-2.828-.707-.707h-.001Zm9.124-8.405h-.717l-4.87 4.869.706.707 4.881-4.879v-.697Zm-14 0v.7l11.241 11.241.707-.707L5.716 5.002l-.715-.001Z" /></g><defs><clipPath id="a"><path fill="#fff" d="M0 0h24v24H0z"/></clipPath></defs></svg>
